X:0470
T:The Humours of Listivain.
C:Irish
M:6/8
L:1/8
Q:3/8=120
I: :: ::
Z:Jack Campin * www.campin.me.uk * 2009
K:A Minor
 EAA        (TAGA)       |(TBAB)        GAB  |  eAA (TAGA)|(TBAB) g3|\
(eg).g       (de).e      |!(Bd).d      (GA).B|  eAA (TAGA)|(TBAB) g3|\
(eg).g       (df).f      |  BEG         A3  ::
(ea).a       Taga        | Tbab         g3   |(Taga)  e3  |(Tgfg) d3|\
.e(e/f/e/d/) .B(B/c/B/G/)|! A(A/B/A/G/) E3   |  EAA (TAGA)| TB>AB g3|\
(eg).g       (de).e      |  BEG         A3  :|

